img/svgicons/new.svg

<svg width="82" height="32" viewBox="0 0 82 32" fill="none" xmlns="http://www.w3.org/2000/svg">
<path d="M4.13445 0.559814C4.13445 0.559814 0 1.40249 0 5.65591C0 9.90895 0 31.6729 0 31.6729C0 31.6729 0.459071 26.4316 4.13445 26.4316H82L74.0596 13.0347L82 0.559814H4.13445V0.559814Z" fill="#E1843E"/>
<path d="M18.79 10.9V18H17.15V15.09H14.32V18H12.68V10.9H14.32V13.65H17.15V10.9H18.79ZM23.8607 18.06C23.3274 18.06 22.844 17.96 22.4107 17.76C21.984 17.5533 21.614 17.28 21.3007 16.94C20.994 16.5933 20.7574 16.2067 20.5907 15.78C20.424 15.3467 20.3407 14.9 20.3407 14.44C20.3407 13.9667 20.4274 13.5167 20.6007 13.09C20.7807 12.6633 21.0274 12.2833 21.3407 11.95C21.6607 11.61 22.0374 11.3433 22.4707 11.15C22.904 10.9567 23.3774 10.86 23.8907 10.86C24.4174 10.86 24.894 10.9633 25.3207 11.17C25.754 11.37 26.124 11.6433 26.4307 11.99C26.744 12.3367 26.984 12.7267 27.1507 13.16C27.3174 13.5867 27.4007 14.0233 27.4007 14.47C27.4007 14.9433 27.314 15.3933 27.1407 15.82C26.9674 16.2467 26.7207 16.63 26.4007 16.97C26.0807 17.3033 25.704 17.57 25.2707 17.77C24.844 17.9633 24.374 18.06 23.8607 18.06ZM22.0107 14.46C22.0107 14.7333 22.0507 15 22.1307 15.26C22.2107 15.5133 22.3274 15.74 22.4807 15.94C22.6407 16.14 22.8374 16.3 23.0707 16.42C23.304 16.54 23.5707 16.6 23.8707 16.6C24.184 16.6 24.4574 16.54 24.6907 16.42C24.924 16.2933 25.1174 16.1267 25.2707 15.92C25.424 15.7133 25.5374 15.4833 25.6107 15.23C25.6907 14.97 25.7307 14.7067 25.7307 14.44C25.7307 14.1667 25.6907 13.9033 25.6107 13.65C25.5307 13.3967 25.4107 13.17 25.2507 12.97C25.0907 12.7633 24.894 12.6033 24.6607 12.49C24.4274 12.3767 24.164 12.32 23.8707 12.32C23.5574 12.32 23.284 12.38 23.0507 12.5C22.824 12.62 22.6307 12.7833 22.4707 12.99C22.3174 13.19 22.2007 13.42 22.1207 13.68C22.0474 13.9333 22.0107 14.1933 22.0107 14.46ZM34.8184 16.18C34.8184 16.5867 34.7084 16.9267 34.4884 17.2C34.275 17.4667 33.985 17.6667 33.6184 17.8C33.2517 17.9333 32.8484 18 32.4084 18H28.9484V10.9H32.8984C33.2317 10.9 33.5184 10.99 33.7584 11.17C34.005 11.3433 34.1917 11.57 34.3184 11.85C34.4517 12.13 34.5184 12.42 34.5184 12.72C34.5184 13.0533 34.4317 13.3733 34.2584 13.68C34.085 13.98 33.8317 14.2067 33.4984 14.36C33.905 14.48 34.225 14.6933 34.4584 15C34.6984 15.3067 34.8184 15.7 34.8184 16.18ZM33.1484 15.85C33.1484 15.6967 33.1184 15.5633 33.0584 15.45C32.9984 15.33 32.9184 15.2367 32.8184 15.17C32.725 15.0967 32.6117 15.06 32.4784 15.06H30.5884V16.61H32.4084C32.5484 16.61 32.6717 16.5767 32.7784 16.51C32.8917 16.4433 32.9817 16.3533 33.0484 16.24C33.115 16.1267 33.1484 15.9967 33.1484 15.85ZM30.5884 12.3V13.77H32.1984C32.3184 13.77 32.4284 13.7433 32.5284 13.69C32.635 13.6367 32.7217 13.5567 32.7884 13.45C32.855 13.3367 32.8884 13.1967 32.8884 13.03C32.8884 12.87 32.8584 12.7367 32.7984 12.63C32.745 12.5233 32.6717 12.4433 32.5784 12.39C32.485 12.33 32.3784 12.3 32.2584 12.3H30.5884ZM36.4243 18V10.9H38.0643V15.67L41.1243 10.9H42.6543V18H41.0143V13.26L37.9943 18H36.4243ZM50.7701 10.9V18H49.1301V15.09H46.3001V18H44.6601V10.9H46.3001V13.65H49.1301V10.9H50.7701ZM52.7608 18V10.9H54.3908V13.65H54.9508L56.9308 10.9H58.7508L56.2108 14.33L58.9708 18H56.9808L54.9008 15.14H54.3908V18H52.7608ZM62.2106 10.9H63.9806L66.4206 18H64.7406L64.1906 16.41H61.9806L61.4406 18H59.7606L62.2106 10.9ZM63.9206 15.28L63.0906 12.55L62.2406 15.28H63.9206Z" fill="white"/>
</svg>

<svg width="82" height="32" fill="none" xmlns="http://www.w3.org/2000/svg"><path d="M4.134.56S0 1.402 0 5.656v26.017s.46-5.241 4.134-5.241H82l-7.94-13.397L82 .56H4.134Z" fill="#E1843E"/><path d="M18.79 10.9V18h-1.64v-2.91h-2.83V18h-1.64v-7.1h1.64v2.75h2.83V10.9h1.64Zm5.07 7.16a3.42 3.42 0 0 1-1.45-.3 3.669 3.669 0 0 1-1.11-.82 3.856 3.856 0 0 1-.71-1.16 3.702 3.702 0 0 1-.25-1.34c0-.473.087-.923.26-1.35.18-.427.427-.807.74-1.14a3.446 3.446 0 0 1 2.55-1.09c.527 0 1.004.103 1.43.31.434.2.804.473 1.11.82.314.347.554.737.72 1.17.167.427.25.863.25 1.31 0 .473-.086.923-.26 1.35-.173.427-.42.81-.74 1.15a3.7 3.7 0 0 1-1.13.8c-.426.193-.896.29-1.41.29Zm-1.85-3.6c0 .273.04.54.12.8.08.253.197.48.35.68a1.724 1.724 0 0 0 1.39.66c.314 0 .587-.06.82-.18.234-.127.427-.293.58-.5.154-.207.267-.437.34-.69a2.672 2.672 0 0 0 0-1.58c-.08-.253-.2-.48-.36-.68a1.647 1.647 0 0 0-.59-.48 1.785 1.785 0 0 0-.79-.17c-.313 0-.586.06-.82.18-.226.12-.42.283-.58.49-.153.2-.27.43-.35.69-.073.253-.11.513-.11.78Zm12.808 1.72c0 .407-.11.747-.33 1.02a1.926 1.926 0 0 1-.87.6c-.366.133-.77.2-1.21.2h-3.46v-7.1h3.95c.334 0 .62.09.86.27.247.173.434.4.56.68.134.28.2.57.2.87 0 .333-.086.653-.26.96-.173.3-.426.527-.76.68.407.12.727.333.96.64.24.307.36.7.36 1.18Zm-1.67-.33a.843.843 0 0 0-.09-.4.708.708 0 0 0-.24-.28.534.534 0 0 0-.34-.11h-1.89v1.55h1.82a.75.75 0 0 0 .74-.76Zm-2.56-3.55v1.47h1.61a.69.69 0 0 0 .59-.32.817.817 0 0 0 .1-.42c0-.16-.03-.293-.09-.4a.551.551 0 0 0-.22-.24.579.579 0 0 0-.32-.09h-1.67Zm5.836 5.7v-7.1h1.64v4.77l3.06-4.77h1.53V18h-1.64v-4.74L37.994 18h-1.57Zm14.346-7.1V18h-1.64v-2.91H46.3V18h-1.64v-7.1h1.64v2.75h2.83V10.9h1.64Zm1.99 7.1v-7.1h1.63v2.75h.56l1.98-2.75h1.82l-2.54 3.43L58.97 18h-1.99l-2.08-2.86h-.51V18h-1.63Zm9.45-7.1h1.77l2.44 7.1h-1.68l-.55-1.59h-2.21L61.44 18h-1.68l2.45-7.1Zm1.71 4.38-.83-2.73-.85 2.73h1.68Z" fill="#fff"/></svg>
